X: 1
T: Men They Stand And Stay, The
M: 4/4
L: 1/8
R: reel
K: Dmin
Q: C=160
A2|A2>D D2 C2 F2 G2>A A2|G2>F D2 D2 D6 C C|F2>F F G A2 c2 c<d2 c c | c2 A2 G A B2|A6 A G|F2>F F G A2 c2 c<d2 c c|c2 A2 G2 F2|G6 A G|F2 D D D2 C2 F2>G A2 A A|G2 F2 D2>D|D6 A A||A2 D2 D2 A A-|A2 c2 (c =B) B B|=B2 A2 A2 G A|A6 A A|A2 =B (c2 B c B)|d2 D<D2 D E|F2 F G E2 C D|D6 z|
